dist/img/svg/spine_icon.svg

<svg version="1.2" baseProfile="tiny-ps" xmlns="http://www.w3.org/2000/svg" width="1461" height="1536"><style>.shp0{fill:#000}</style><g id="Layer 1"><path id="&lt;Path&gt;" class="shp0" d="M1449.77 832.02l-98.57-61.57c-38.48-24.04-84-31.64-128.21-21.43-44.2 10.21-81.78 37.03-105.81 75.5l-100.22 160.43c-17.66 28.29-45.28 47.99-77.76 55.5-32.5 7.51-65.97 1.91-94.24-15.75-58.39-36.47-76.22-113.64-39.75-172.02l227.4-364.05c49.6-79.42 25.36-184.41-54.07-234.02l-96.61-60.35 15.59-24.95c6.58-10.54 3.37-24.42-7.16-31.01-10.55-6.57-24.43-3.37-31 7.16l-62.25 99.65c-6.57 10.55-3.38 24.42 7.17 31.01 3.7 2.31 7.82 3.42 11.9 3.42 7.5 0 14.83-3.75 19.1-10.58l22.81-36.53 96.61 60.35c58.39 36.47 76.21 113.63 39.74 172.01L767.05 828.84c-49.62 79.43-25.36 184.41 54.06 234.02 27.33 17.07 58.21 25.85 89.65 25.85 12.83 0 25.74-1.46 38.55-4.42 44.21-10.21 81.79-37.03 105.81-75.5l100.22-160.43c17.66-28.28 45.28-47.99 77.77-55.5 32.48-7.52 65.96-1.91 94.24 15.75l98.58 61.58c10.54 6.57 24.42 3.37 31-7.16 6.59-10.55 3.38-24.42-7.16-31.01z"/><path id="&lt;Path&gt;" class="shp0" d="M896.57 309.76c-10.2-7.1-24.21-4.59-31.32 5.6L46.89 1490.26c-.18.26-.34.45-.45.58-.44-.14-.99-.48-1.31-.82.07-.16.16-.38.32-.65L826.77 86.8c10.94-19.64 28.97-33.55 50.75-39.16 21.78-5.6 44.28-2.14 63.36 9.78 18.46 11.53 31.31 29.56 36.17 50.77 4.85 21.15 1.21 42.88-10.24 61.19-.73 1.16-1.49 2.32-2.29 3.46-7.1 10.2-4.59 24.22 5.59 31.32 10.2 7.11 24.23 4.6 31.33-5.6 1.22-1.74 2.38-3.51 3.5-5.31 17.83-28.5 23.49-62.28 15.96-95.12-7.54-32.94-27.5-60.96-56.19-78.88C935.09.75 900.13-4.64 866.3 4.07c-33.84 8.7-61.83 30.31-78.84 60.83l-29.07 52.21-108.03-67.49c-10.54-6.58-24.41-3.38-31 7.17-6.59 10.53-3.38 24.41 7.16 31l109.94 68.67L6.14 1467.47c-12.29 22.08-5.66 47.81 15.76 61.19 7.92 4.95 16.48 7.34 24.83 7.34 14.27 0 27.98-6.95 37.08-20.02L902.17 341.09c7.1-10.2 4.59-24.23-5.6-31.33z"/></g></svg>

<svg version="1.2" baseProfile="tiny-ps" xmlns="http://www.w3.org/2000/svg" viewBox="0 0 1461 1536" width="1461" height="1536">
	<title>Layer 1</title>
	<style>
		tspan { white-space:pre }
		.shp0 { fill: #000000 } 
	</style>
	<g id="Layer 1">
		<path id="&lt;Path&gt;" class="shp0" d="M1449.77 832.02L1351.2 770.45C1312.72 746.41 1267.2 738.81 1222.99 749.02C1178.79 759.23 1141.21 786.05 1117.18 824.52L1016.96 984.95C999.3 1013.24 971.68 1032.94 939.2 1040.45C906.7 1047.96 873.23 1042.36 844.96 1024.7C786.57 988.23 768.74 911.06 805.21 852.68L1032.61 488.63C1082.21 409.21 1057.97 304.22 978.54 254.61L881.93 194.26L897.52 169.31C904.1 158.77 900.89 144.89 890.36 138.3C879.81 131.73 865.93 134.93 859.36 145.46L797.11 245.11C790.54 255.66 793.73 269.53 804.28 276.12C807.98 278.43 812.1 279.54 816.18 279.54C823.68 279.54 831.01 275.79 835.28 268.96L858.09 232.43L954.7 292.78C1013.09 329.25 1030.91 406.41 994.44 464.79L767.05 828.84C717.43 908.27 741.69 1013.25 821.11 1062.86C848.44 1079.93 879.32 1088.71 910.76 1088.71C923.59 1088.71 936.5 1087.25 949.31 1084.29C993.52 1074.08 1031.1 1047.26 1055.12 1008.79L1155.34 848.36C1173 820.08 1200.62 800.37 1233.11 792.86C1265.59 785.34 1299.07 790.95 1327.35 808.61L1425.93 870.19C1436.47 876.76 1450.35 873.56 1456.93 863.03C1463.52 852.48 1460.31 838.61 1449.77 832.02Z" />
		<path id="&lt;Path&gt;" class="shp0" d="M896.57 309.76C886.37 302.66 872.36 305.17 865.25 315.36L46.89 1490.26C46.71 1490.52 46.55 1490.71 46.44 1490.84C46 1490.7 45.45 1490.36 45.13 1490.02C45.2 1489.86 45.29 1489.64 45.45 1489.37L826.77 86.8C837.71 67.16 855.74 53.25 877.52 47.64C899.3 42.04 921.8 45.5 940.88 57.42C959.34 68.95 972.19 86.98 977.05 108.19C981.9 129.34 978.26 151.07 966.81 169.38C966.08 170.54 965.32 171.7 964.52 172.84C957.42 183.04 959.93 197.06 970.11 204.16C980.31 211.27 994.34 208.76 1001.44 198.56C1002.66 196.82 1003.82 195.05 1004.94 193.25C1022.77 164.75 1028.43 130.97 1020.9 98.13C1013.36 65.19 993.4 37.17 964.71 19.25C935.09 0.75 900.13 -4.64 866.3 4.07C832.46 12.77 804.47 34.38 787.46 64.9L758.39 117.11L650.36 49.62C639.82 43.04 625.95 46.24 619.36 56.79C612.77 67.32 615.98 81.2 626.52 87.79L736.46 156.46L6.14 1467.47C-6.15 1489.55 0.48 1515.28 21.9 1528.66C29.82 1533.61 38.38 1536 46.73 1536C61 1536 74.71 1529.05 83.81 1515.98L902.17 341.09C909.27 330.89 906.76 316.86 896.57 309.76Z" />
	</g>
</svg>
